src/Objs/ProductCategory/thumbnail.svg

<svg viewBox="0 0 150 100" fill="none" xmlns="http://www.w3.org/2000/svg">
<g id="product-category">
<g id="Group 33">
<rect id="Rectangle 8" opacity="0.25" x="19" y="71" width="113" height="20" rx="2" fill="#AAAAAA"/>
<g id="Group 13">
<rect id="Rectangle 6" opacity="0.55" x="19" y="10" width="113" height="12" rx="2" fill="#AAAAAA"/>
<path id="Vector" d="M40 16L51 16" stroke="#AAAAAA" stroke-width="4" stroke-linecap="round" stroke-linejoin="bevel"/>
<path id="Vector_2" d="M64 16L78 16" stroke="#AAAAAA" stroke-width="4" stroke-linecap="round" stroke-linejoin="bevel"/>
<path id="Vector_3" d="M89 16L102 16" stroke="#AAAAAA" stroke-width="4" stroke-linecap="round" stroke-linejoin="bevel"/>
<path id="Vector_4" d="M29 19C30.6569 19 32 17.6569 32 16C32 14.3431 30.6569 13 29 13C27.3431 13 26 14.3431 26 16C26 17.6569 27.3431 19 29 19Z" fill="#AAAAAA"/>
</g>
<g id="Group 17">
<path id="Vector_5" d="M25 77H41" stroke="#AAAAAA" stroke-width="3" stroke-linecap="round" stroke-linejoin="bevel"/>
<g id="Group 15">
<path id="Vector_6" d="M28 82H41" stroke="#AAAAAA" stroke-width="2" stroke-linecap="round" stroke-linejoin="bevel"/>
<path id="Vector_7" d="M24.0494 83L24.9218 82.1949C25.0261 82.0987 25.0261 81.9418 24.9218 81.8506L24 81" stroke="#AAAAAA" stroke-linecap="round" stroke-linejoin="round"/>
</g>
<g id="Group 16">
<path id="Vector_8" d="M28 86H39" stroke="#AAAAAA" stroke-width="2" stroke-linecap="round" stroke-linejoin="bevel"/>
<path id="Vector_9" d="M24.0494 87L24.9218 86.1949C25.0261 86.0987 25.0261 85.9418 24.9218 85.8506L24 85" stroke="#AAAAAA" stroke-linecap="round" stroke-linejoin="round"/>
</g>
</g>
<g id="Group 18">
<path id="Vector_10" d="M50 77H66" stroke="#AAAAAA" stroke-width="3" stroke-linecap="round" stroke-linejoin="bevel"/>
<g id="Group 15_2">
<path id="Vector_11" d="M53 82H66" stroke="#AAAAAA" stroke-width="2" stroke-linecap="round" stroke-linejoin="bevel"/>
<path id="Vector_12" d="M49.0494 83L49.9218 82.1949C50.0261 82.0987 50.0261 81.9418 49.9218 81.8506L49 81" stroke="#AAAAAA" stroke-linecap="round" stroke-linejoin="round"/>
</g>
<g id="Group 16_2">
<path id="Vector_13" d="M53 86H64" stroke="#AAAAAA" stroke-width="2" stroke-linecap="round" stroke-linejoin="bevel"/>
<path id="Vector_14" d="M49.0494 87L49.9218 86.1949C50.0261 86.0987 50.0261 85.9418 49.9218 85.8506L49 85" stroke="#AAAAAA" stroke-linecap="round" stroke-linejoin="round"/>
</g>
</g>
<g id="Group 19">
<path id="Vector_15" d="M75 77H91" stroke="#AAAAAA" stroke-width="3" stroke-linecap="round" stroke-linejoin="bevel"/>
<g id="Group 15_3">
<path id="Vector_16" d="M78 82H91" stroke="#AAAAAA" stroke-width="2" stroke-linecap="round" stroke-linejoin="bevel"/>
<path id="Vector_17" d="M74.0494 83L74.9218 82.1949C75.0261 82.0987 75.0261 81.9418 74.9218 81.8506L74 81" stroke="#AAAAAA" stroke-linecap="round" stroke-linejoin="round"/>
</g>
<g id="Group 16_3">
<path id="Vector_18" d="M78 86H89" stroke="#AAAAAA" stroke-width="2" stroke-linecap="round" stroke-linejoin="bevel"/>
<path id="Vector_19" d="M74.0494 87L74.9218 86.1949C75.0261 86.0987 75.0261 85.9418 74.9218 85.8506L74 85" stroke="#AAAAAA" stroke-linecap="round" stroke-linejoin="round"/>
</g>
</g>
<g id="Group 29">
<g id="Group 26">
<rect id="Rectangle 9" opacity="0.15" x="19" y="28" width="29" height="32" rx="2" fill="#AAAAAA"/>
<g id="Group 25">
<path id="Vector_20" d="M34.1053 45H45" stroke="#AAAAAA" stroke-width="2" stroke-linecap="round" stroke-linejoin="bevel"/>
<path id="Vector_21" d="M22 45H30.4737" stroke="#AAAAAA" stroke-width="2" stroke-linecap="round" stroke-linejoin="bevel"/>
</g>
<g id="Group 26_2">
<path id="Vector_22" d="M34.1053 49H45" stroke="#AAAAAA" stroke-width="2" stroke-linecap="round" stroke-linejoin="bevel"/>
<path id="Vector_23" d="M22 49H30.4737" stroke="#AAAAAA" stroke-width="2" stroke-linecap="round" stroke-linejoin="bevel"/>
</g>
<g id="Group 27">
<path id="Vector_24" d="M34.1053 53H45" stroke="#AAAAAA" stroke-width="2" stroke-linecap="round" stroke-linejoin="bevel"/>
<path id="Vector_25" d="M22 53H30.4737" stroke="#AAAAAA" stroke-width="2" stroke-linecap="round" stroke-linejoin="bevel"/>
</g>
<g id="Group 28">
<path id="Vector_26" d="M34.1053 57H45" stroke="#AAAAAA" stroke-width="2" stroke-linecap="round" stroke-linejoin="bevel"/>
<path id="Vector_27" d="M22 57H30.4737" stroke="#AAAAAA" stroke-width="2" stroke-linecap="round" stroke-linejoin="bevel"/>
</g>
<path id="Vector_28" d="M22 41H39" stroke="#AAAAAA" stroke-width="2" stroke-linecap="round" stroke-linejoin="bevel"/>
<g id="Group" opacity="0.75">
<path id="Vector_29" d="M44.6774 30H22.0062C21.4505 30 21 30.193 21 30.4311V36.5689C21 36.807 21.4505 37 22.0062 37H44.6774C45.2331 37 45.6836 36.807 45.6836 36.5689V30.4311C45.6836 30.193 45.2331 30 44.6774 30Z" fill="white"/>
<path id="Vector_30" opacity="0.66" d="M36.6657 33.3508C37.764 33.3508 38.6543 32.9694 38.6543 32.4988C38.6543 32.0283 37.764 31.6468 36.6657 31.6468C35.5675 31.6468 34.6771 32.0283 34.6771 32.4988C34.6771 32.9694 35.5675 33.3508 36.6657 33.3508Z" fill="#AAAAAA"/>
<path id="Vector_31" opacity="0.65" d="M32.6933 37L38.0439 34.6953C38.764 34.3847 39.9371 34.3847 40.6572 34.6953L44.4723 36.338L45.5549 36.7855C45.3832 36.9121 45.0589 36.998 44.6917 36.998H32.6837" fill="#AAAAAA"/>
<path id="Vector_32" d="M37.8341 37H22.0587C21.4721 37 21 36.7957 21 36.5464V35.9559C21 35.9559 21.0048 35.9437 21.0143 35.9396L21.2146 35.8558L26.7751 33.4734C27.5906 33.124 28.9115 33.124 29.727 33.4734L37.9533 36.998H37.8293L37.8341 37Z" fill="#AAAAAA"/>
</g>
</g>
</g>
<g id="Group 30">
<g id="Group 26_3">
<rect id="Rectangle 9_2" opacity="0.15" x="51" y="28" width="29" height="32" rx="2" fill="#AAAAAA"/>
<g id="Group 25_2">
<path id="Vector_33" d="M66.1053 45H77" stroke="#AAAAAA" stroke-width="2" stroke-linecap="round" stroke-linejoin="bevel"/>
<path id="Vector_34" d="M54 45H62.4737" stroke="#AAAAAA" stroke-width="2" stroke-linecap="round" stroke-linejoin="bevel"/>
</g>
<g id="Group 26_4">
<path id="Vector_35" d="M66.1053 49H77" stroke="#AAAAAA" stroke-width="2" stroke-linecap="round" stroke-linejoin="bevel"/>
<path id="Vector_36" d="M54 49H62.4737" stroke="#AAAAAA" stroke-width="2" stroke-linecap="round" stroke-linejoin="bevel"/>
</g>
<g id="Group 27_2">
<path id="Vector_37" d="M66.1053 53H77" stroke="#AAAAAA" stroke-width="2" stroke-linecap="round" stroke-linejoin="bevel"/>
<path id="Vector_38" d="M54 53H62.4737" stroke="#AAAAAA" stroke-width="2" stroke-linecap="round" stroke-linejoin="bevel"/>
</g>
<g id="Group 28_2">
<path id="Vector_39" d="M66.1053 57H77" stroke="#AAAAAA" stroke-width="2" stroke-linecap="round" stroke-linejoin="bevel"/>
<path id="Vector_40" d="M54 57H62.4737" stroke="#AAAAAA" stroke-width="2" stroke-linecap="round" stroke-linejoin="bevel"/>
</g>
<path id="Vector_41" d="M54 41H71" stroke="#AAAAAA" stroke-width="2" stroke-linecap="round" stroke-linejoin="bevel"/>
<g id="Group_2" opacity="0.75">
<path id="Vector_42" d="M76.6774 30H54.0062C53.4505 30 53 30.193 53 30.4311V36.5689C53 36.807 53.4505 37 54.0062 37H76.6774C77.2331 37 77.6836 36.807 77.6836 36.5689V30.4311C77.6836 30.193 77.2331 30 76.6774 30Z" fill="white"/>
<path id="Vector_43" opacity="0.66" d="M68.6657 33.3508C69.764 33.3508 70.6543 32.9694 70.6543 32.4988C70.6543 32.0283 69.764 31.6468 68.6657 31.6468C67.5675 31.6468 66.6771 32.0283 66.6771 32.4988C66.6771 32.9694 67.5675 33.3508 68.6657 33.3508Z" fill="#AAAAAA"/>
<path id="Vector_44" opacity="0.65" d="M64.6933 37L70.0439 34.6953C70.764 34.3847 71.9371 34.3847 72.6572 34.6953L76.4723 36.338L77.5549 36.7855C77.3832 36.9121 77.0589 36.998 76.6917 36.998H64.6837" fill="#AAAAAA"/>
<path id="Vector_45" d="M69.8341 37H54.0587C53.4721 37 53 36.7957 53 36.5464V35.9559C53 35.9559 53.0048 35.9437 53.0143 35.9396L53.2146 35.8558L58.7751 33.4734C59.5906 33.124 60.9115 33.124 61.727 33.4734L69.9533 36.998H69.8293L69.8341 37Z" fill="#AAAAAA"/>
</g>
</g>
</g>
<g id="Group 31">
<g id="Group 26_5">
<rect id="Rectangle 9_3" opacity="0.15" x="83" y="28" width="29" height="32" rx="2" fill="#AAAAAA"/>
<g id="Group 25_3">
<path id="Vector_46" d="M98.1052 45H109" stroke="#AAAAAA" stroke-width="2" stroke-linecap="round" stroke-linejoin="bevel"/>
<path id="Vector_47" d="M86 45H94.4737" stroke="#AAAAAA" stroke-width="2" stroke-linecap="round" stroke-linejoin="bevel"/>
</g>
<g id="Group 26_6">
<path id="Vector_48" d="M98.1052 49H109" stroke="#AAAAAA" stroke-width="2" stroke-linecap="round" stroke-linejoin="bevel"/>
<path id="Vector_49" d="M86 49H94.4737" stroke="#AAAAAA" stroke-width="2" stroke-linecap="round" stroke-linejoin="bevel"/>
</g>
<g id="Group 27_3">
<path id="Vector_50" d="M98.1052 53H109" stroke="#AAAAAA" stroke-width="2" stroke-linecap="round" stroke-linejoin="bevel"/>
<path id="Vector_51" d="M86 53H94.4737" stroke="#AAAAAA" stroke-width="2" stroke-linecap="round" stroke-linejoin="bevel"/>
</g>
<g id="Group 28_3">
<path id="Vector_52" d="M98.1052 57H109" stroke="#AAAAAA" stroke-width="2" stroke-linecap="round" stroke-linejoin="bevel"/>
<path id="Vector_53" d="M86 57H94.4737" stroke="#AAAAAA" stroke-width="2" stroke-linecap="round" stroke-linejoin="bevel"/>
</g>
<path id="Vector_54" d="M86 41H103" stroke="#AAAAAA" stroke-width="2" stroke-linecap="round" stroke-linejoin="bevel"/>
<g id="Group_3" opacity="0.75">
<path id="Vector_55" d="M108.677 30H86.0062C85.4505 30 85 30.193 85 30.4311V36.5689C85 36.807 85.4505 37 86.0062 37H108.677C109.233 37 109.684 36.807 109.684 36.5689V30.4311C109.684 30.193 109.233 30 108.677 30Z" fill="white"/>
<path id="Vector_56" opacity="0.66" d="M100.666 33.3508C101.764 33.3508 102.654 32.9694 102.654 32.4988C102.654 32.0283 101.764 31.6468 100.666 31.6468C99.5675 31.6468 98.6771 32.0283 98.6771 32.4988C98.6771 32.9694 99.5675 33.3508 100.666 33.3508Z" fill="#AAAAAA"/>
<path id="Vector_57" opacity="0.65" d="M96.6933 37L102.044 34.6953C102.764 34.3847 103.937 34.3847 104.657 34.6953L108.472 36.338L109.555 36.7855C109.383 36.9121 109.059 36.998 108.692 36.998H96.6837" fill="#AAAAAA"/>
<path id="Vector_58" d="M101.834 37H86.0587C85.4721 37 85 36.7957 85 36.5464V35.9559C85 35.9559 85.0048 35.9437 85.0143 35.9396L85.2146 35.8558L90.7751 33.4734C91.5906 33.124 92.9115 33.124 93.727 33.4734L101.953 36.998H101.829L101.834 37Z" fill="#AAAAAA"/>
</g>
</g>
</g>
</g>
</g>
</svg>

<svg xmlns="http://www.w3.org/2000/svg" fill="none" viewBox="0 0 150 100"><rect width="113" height="20" x="19" y="71" fill="#AAA" opacity=".25" rx="2"/><rect width="113" height="12" x="19" y="10" fill="#AAA" opacity=".55" rx="2"/><path stroke="#AAA" stroke-linecap="round" stroke-linejoin="bevel" stroke-width="4" d="M40 16h11m13 0h14m11 0h13"/><path fill="#AAA" d="M29 19a3 3 0 1 0 0-6 3 3 0 0 0 0 6"/><g stroke="#AAA" stroke-linecap="round"><path stroke-linejoin="bevel" stroke-width="3" d="M25 77h16"/><path stroke-linejoin="bevel" stroke-width="2" d="M28 82h13"/><path stroke-linejoin="round" d="m24.05 83 .872-.805a.23.23 0 0 0 0-.344L24 81"/><path stroke-linejoin="bevel" stroke-width="2" d="M28 86h11"/><path stroke-linejoin="round" d="m24.05 87 .872-.805a.23.23 0 0 0 0-.344L24 85"/></g><g stroke="#AAA" stroke-linecap="round"><path stroke-linejoin="bevel" stroke-width="3" d="M50 77h16"/><path stroke-linejoin="bevel" stroke-width="2" d="M53 82h13"/><path stroke-linejoin="round" d="m49.05 83 .872-.805a.23.23 0 0 0 0-.344L49 81"/><path stroke-linejoin="bevel" stroke-width="2" d="M53 86h11"/><path stroke-linejoin="round" d="m49.05 87 .872-.805a.23.23 0 0 0 0-.344L49 85"/></g><g stroke="#AAA" stroke-linecap="round"><path stroke-linejoin="bevel" stroke-width="3" d="M75 77h16"/><path stroke-linejoin="bevel" stroke-width="2" d="M78 82h13"/><path stroke-linejoin="round" d="m74.05 83 .872-.805a.23.23 0 0 0 0-.344L74 81"/><path stroke-linejoin="bevel" stroke-width="2" d="M78 86h11"/><path stroke-linejoin="round" d="m74.05 87 .872-.805a.23.23 0 0 0 0-.344L74 85"/></g><rect width="29" height="32" x="19" y="28" fill="#AAA" opacity=".15" rx="2"/><path stroke="#AAA" stroke-linecap="round" stroke-linejoin="bevel" stroke-width="2" d="M34.105 45H45m-23 0h8.474m3.631 4H45m-23 0h8.474m3.631 4H45m-23 0h8.474m3.631 4H45m-23 0h8.474M22 41h17"/><g opacity=".75"><path fill="#fff" d="M44.677 30h-22.67c-.556 0-1.007.193-1.007.431v6.138c0 .238.45.431 1.006.431h22.671c.556 0 1.007-.193 1.007-.431V30.43c0-.238-.45-.431-1.007-.431"/><path fill="#AAA" d="M36.666 33.35c1.098 0 1.988-.38 1.988-.851 0-.47-.89-.852-1.988-.852s-1.989.381-1.989.852c0 .47.89.852 1.989.852" opacity=".66"/><path fill="#AAA" d="m32.693 37 5.35-2.305c.721-.31 1.894-.31 2.614 0l3.815 1.643 1.083.447c-.172.127-.496.213-.863.213H32.684" opacity=".65"/><path fill="#AAA" d="M37.834 37H22.06c-.587 0-1.059-.204-1.059-.454v-.59s.005-.012.014-.016l.2-.084 5.561-2.383c.816-.349 2.137-.349 2.952 0l8.226 3.525h-.124z"/></g><rect width="29" height="32" x="51" y="28" fill="#AAA" opacity=".15" rx="2"/><path stroke="#AAA" stroke-linecap="round" stroke-linejoin="bevel" stroke-width="2" d="M66.105 45H77m-23 0h8.474m3.631 4H77m-23 0h8.474m3.631 4H77m-23 0h8.474m3.631 4H77m-23 0h8.474M54 41h17"/><g opacity=".75"><path fill="#fff" d="M76.677 30h-22.67c-.556 0-1.007.193-1.007.431v6.138c0 .238.45.431 1.006.431h22.671c.556 0 1.007-.193 1.007-.431V30.43c0-.238-.45-.431-1.007-.431"/><path fill="#AAA" d="M68.666 33.35c1.098 0 1.988-.38 1.988-.851 0-.47-.89-.852-1.988-.852-1.099 0-1.989.381-1.989.852 0 .47.89.852 1.989.852" opacity=".66"/><path fill="#AAA" d="m64.693 37 5.35-2.305c.721-.31 1.894-.31 2.614 0l3.815 1.643 1.083.447c-.172.127-.496.213-.863.213H64.684" opacity=".65"/><path fill="#AAA" d="M69.834 37H54.06c-.587 0-1.059-.204-1.059-.454v-.59s.005-.012.014-.016l.2-.084 5.561-2.383c.816-.349 2.136-.349 2.952 0l8.226 3.525h-.124z"/></g><rect width="29" height="32" x="83" y="28" fill="#AAA" opacity=".15" rx="2"/><path stroke="#AAA" stroke-linecap="round" stroke-linejoin="bevel" stroke-width="2" d="M98.105 45H109m-23 0h8.474m3.631 4H109m-23 0h8.474m3.631 4H109m-23 0h8.474m3.631 4H109m-23 0h8.474M86 41h17"/><g opacity=".75"><path fill="#fff" d="M108.677 30h-22.67c-.556 0-1.007.193-1.007.431v6.138c0 .238.45.431 1.006.431h22.671c.556 0 1.007-.193 1.007-.431V30.43c0-.238-.451-.431-1.007-.431"/><path fill="#AAA" d="M100.666 33.35c1.098 0 1.988-.38 1.988-.851 0-.47-.89-.852-1.988-.852-1.099 0-1.989.381-1.989.852 0 .47.89.852 1.989.852" opacity=".66"/><path fill="#AAA" d="m96.693 37 5.351-2.305c.72-.31 1.893-.31 2.613 0l3.815 1.643 1.083.447c-.172.127-.496.213-.863.213H96.684" opacity=".65"/><path fill="#AAA" d="M101.834 37H86.059c-.587 0-1.059-.204-1.059-.454v-.59s.005-.012.014-.016l.2-.084 5.561-2.383c.816-.349 2.136-.349 2.952 0l8.226 3.525h-.124z"/></g></svg>
